X:21
T:Hpps simple chords 25
M:3/4
L:1/8
K:A
c>d [e2A,2C2E2] e2 | c2 c>d [e2A,2C2E2] | e2 c2 B>c | [d2E,2G,2B,2D2] d2 B2 | B>c [d2E,2G,2B,2D2] d2 |
B2 c>B [A2A,2C2E2] | A2 a2>a2 | [g2D,2F,2A,2] f2 e2 | d>c [f2D,2F,2A,2] d>B |
A2 G>A [B4E,4G,4B,4D4] | A2 c>d | [e2A,2C2E2] e2 c2 | c>d [e2A,2C2E2] e2 |
c2 B>c [d2E,2G,2B,2D2] | d2 B2 B>c | [d2E,2G,2B,2D2] d2 B2 | c>B [A2A,2C2E2] A2 |
a2>a2 [g2D,2F,2A,2] | f2 e2 d>c | [f2D,2F,2A,2] d>B A2 | G>A [B4E,4G,4B,4D4] |
A2 c>d [e2A,2C2E2] | ec2E A>c | [e2A,2C2E2] ec2E | G>B [d2A,2C2E2] dB2 |
E G>B [d2A,2C2E2] | dB2E c>B | [A2A,2C2E2] A2 a3 |g [fA,CE]>A d>f |
e>E A>c [f2A,2C2E2] | d>B A2 G>A | [B4A,4C4E4] A2 | c>d [e2A,2C2E2] ec2 |
E A>c [e2A,2C2E2] | ec2E G>B | [d2A,2C2E2] dB2E | G>B [d2A,2C2E2] dB2 |
E c>B [A2A,2C2E2] | A2 a2>g2 | [fA,CE]>A d>f e>E | A>c [f2A,2C2E2] d>B |
A2 G>A [B4A,4C4E4] | A2 c>d | [e2A,2C2E2] ec2E | A>c [eA,CE]>E ec2 |
E G>B [dA,CE]>E | dB2E G>B | [dA,CE]>E dB2E | c>B [A2A,2C2E2] A2 |
a2>g2 [fA,CE]>A | d>f e>E A>c | [f2A,2C2E2] d>B A2 | G>A [B4A,4C4E4] |
A2 c>d [e2A,2C2E2] | ec2E A>c | [eA,CE]>E ec2E | G>B [dA,CE]>E dB2 |
E G>B [dA,CE]>E | dB2E c>B | [A2A,2C2E2] A2 a3 |g [fA,CE]>A d>f |
e>E A>c [f2A,2C2E2] | d>B A2 G>A | [B4A,4C4E4] A2 | c>d [eA,CE]>E e>E |
c>E A>c [eA,CE]>E | e>E c>E G>B | [dA,CE]>E d>E B>E | G>B [dA,CE]>E d>E |
B>E c>B [A2A,2C2E2] | A2 a2>g2 | [fA,CE]>A d>f e>E | A>c [f2A,2C2E2] d>B |
A2 G>A [B4A,4C4E4] | A2 c>d | [eA,CE]>E e>E c>E | A>c [eA,CE]>E e>E |
c>E G>B [dA,CE]>E | d>E B>E G>B | [dA,CE]>E d>E B>E | c>B [A2A,2C2E2] A2 |
a2>g2 [fA,CE]>A | d>f e>E A>c | [f2A,2C2E2] d>B A2 | G>A [B4A,4C4E4] |
A2 c>d [eA,CE]>E | e>E c>E A>c | [eA,CE]>f e>d c>E | G>B [dA,CE]>E d>E |
B>E G>B [dA,CE]>e | d>c B>E c>B | A/B/A/G/ A/B/c/d/e/f/g/ a3 |g [fA,CEA,CE]>A d>f e3/2 |
E< Ac/ [f2A,2C2E2] d3/2 |B/ A2 G>A [B4A,4C4E4] | A2 c3/2 |d< [eA,CE]E< eE< c |
E< Ac< [eA,CE]f< e |d< cE< GB< [dA,CE] |E< dE< BE< G |B< [dA,CE]e< dc< B |
E< cB/ A/B/A/G/ A/ | B/c/d/e/f/g/a3g[f3/2A,3/2C3/2E3/2A,3/2C3/2E3/2] |A<df<eE<A |c/[f2A,2C2E2]d3/2B/A2 |
G3/2A/[B4A,4C4E4] |A2 |


